icons/1_Primary/Presearch.svg

<svg width="1024" height="1024" fill="none" xmlns="http://www.w3.org/2000/svg"><g clip-path="url(#a)"><path d="M512 1024c282.77 0 512-229.23 512-512S794.77 0 512 0 0 229.23 0 512s229.23 512 512 512Z" fill="#9ABEFF"/><path d="M444.83 567.05h44.59a86.098 86.098 0 0 0 36.88-8.26 92.882 92.882 0 0 0 28.62-22 102.3 102.3 0 0 0 18.14-31.94 103.986 103.986 0 0 0 6.62-36.85 90.063 90.063 0 0 0-7.16-35.77 109.4 109.4 0 0 0-19.3-31.39A96.875 96.875 0 0 0 524 378.23a79.052 79.052 0 0 0-36.88-8.81H370V654h74.81l.02-86.95Zm0-128.82h38a20.47 20.47 0 0 1 13.74 6.61c4.41 4.4 7.16 12.11 7.16 24.21 0 12.1-2.75 19.28-6.61 23.13-3.3 3.85-7.63 6.61-12.66 6.61h-39.63v-60.56ZM283 309.3v405.4a26.285 26.285 0 0 0 7.69 18.589A26.287 26.287 0 0 0 309.27 741H714.7a26.285 26.285 0 0 0 18.589-7.69A26.287 26.287 0 0 0 741 714.73V309.3a26.285 26.285 0 0 0-7.69-18.589A26.287 26.287 0 0 0 714.73 283H309.3a26.285 26.285 0 0 0-18.589 7.69A26.287 26.287 0 0 0 283 309.27v.03ZM660.74 687h-298a26.287 26.287 0 0 1-18.58-7.711 26.285 26.285 0 0 1-7.69-18.589v-298a26.291 26.291 0 0 1 26.27-26.27h298A26.292 26.292 0 0 1 687 362.71v298A26.293 26.293 0 0 1 660.77 687h-.03Zm-182.33-86.38H654v54H478.41v-54Z" fill="#fff"/></g><defs><clipPath id="a"><path fill="#fff" d="M0 0h1024v1024H0z"/></clipPath></defs></svg>

<svg width="1024" height="1024" viewBox="0 0 1024 1024" fill="none" xmlns="http://www.w3.org/2000/svg">
<g clip-path="url(#clip0_2_3198)">
<path d="M512 1024C794.77 1024 1024 794.77 1024 512C1024 229.23 794.77 0 512 0C229.23 0 0 229.23 0 512C0 794.77 229.23 1024 512 1024Z" fill="#9ABEFF"/>
<path d="M444.83 567.05H489.42C502.173 567.062 514.77 564.241 526.3 558.79C537.187 553.399 546.911 545.924 554.92 536.79C562.844 527.325 568.99 516.504 573.06 504.85C577.478 493.068 579.721 480.583 579.68 468C579.758 455.713 577.322 443.54 572.52 432.23C567.908 420.751 561.382 410.137 553.22 400.84C545.021 391.499 535.1 383.822 524 378.23C512.603 372.345 499.946 369.321 487.12 369.42H370V654H444.81L444.83 567.05ZM444.83 438.23H482.83C488.09 438.582 493.012 440.949 496.57 444.84C500.98 449.24 503.73 456.95 503.73 469.05C503.73 481.15 500.98 488.33 497.12 492.18C493.82 496.03 489.49 498.79 484.46 498.79H444.83V438.23ZM283 309.3V714.7C282.997 721.671 285.763 728.357 290.69 733.289C295.616 738.221 302.299 740.995 309.27 741H714.7C721.671 741.003 728.357 738.237 733.289 733.31C738.221 728.384 740.995 721.701 741 714.73V309.3C741.003 302.329 738.237 295.643 733.31 290.711C728.384 285.779 721.701 283.005 714.73 283H309.3C302.329 282.997 295.643 285.763 290.711 290.69C285.779 295.616 283.005 302.299 283 309.27C283 309.27 283 309.29 283 309.3ZM660.74 687H362.74C355.769 686.995 349.086 684.221 344.16 679.289C339.233 674.357 336.467 667.671 336.47 660.7V362.7C336.475 355.734 339.245 349.056 344.17 344.13C349.096 339.205 355.774 336.435 362.74 336.43H660.74C667.706 336.438 674.383 339.21 679.307 344.137C684.23 349.065 686.997 355.744 687 362.71V660.71C687 667.672 684.238 674.35 679.321 679.279C674.404 684.207 667.732 686.984 660.77 687H660.74ZM478.41 600.62H654V654.62H478.41V600.62Z" fill="white"/>
</g>
<defs>
<clipPath id="clip0_2_3198">
<rect width="1024" height="1024" fill="white"/>
</clipPath>
</defs>
</svg>
